!! 00000] TT[00
!! NN
!!!OTL: Fang fengzhen
!!!ARE: Asia, China,ÿNingxia, Longde
!! Ethnic Group: Han, Hui
!! I, 189
!!!SCT: C0054
!!!YEM: Copyright 1995, estate of Helmut Schaffrath.
**kern
*ICvox
*Ivox
*M2/4
*k[b-e-]
*B-:
{4ccc
8ccc
8gg
=1
4.ccc
8fff
=2
4ccc
8bb-
8gg
=3
2ff}
=4
{4ccc
8fff
8ddd
=5
4ccc
8bb-
8gg
=6
8bb-
8gg
8ff
8cc
=7
2ff}
=8
{8.ff
16gg
4ccc
=9
8ccc
8ddd
4ccc
=10
8ff
8gg
4ccc
=11
8.ccc
16bb-
8gg
8ff}
=12
{8gg
4ee-
8ff
=13
4bb-
8bb-
8dd
=14
4.cc
8ff
=15
2cc}
=16
{8ccc
8bb-
8ccc
8fff
=17
8ccc
8bb-
8gg
8ff}
=18
{8gg
4ee-
8ff
=19
4bb-
8bb-
8dd
=20
4.cc
8ff
=21
2cc}
==
!!!AGN: Xiaodiao, Xiuhebao diao. Chunyou yule
!! vgl. 187.  Vereinzelt Verzierungen.
!!!ONB: ESAC (Essen Associative Code) Database: CHINA
!!!AMT: simple duple
!!!AIN: vox
!!!EED: Helmut Schaffrath
!!!EEV: 1.0
*-
